X:32
T:Summer - L'Estate (RV 315) - Presto
C:Vivaldi, A.
M:3/4
L:1/8
Q:1/4=168
K:Gmin
|:d2|g4 ag|f4 ef|d4 ef|g4 d2|
e4 fe|d4 cd|B4 cd|e4 d2|
g2 ag fg|e2 fe de|c2 dc Bc|d4 d2|
g4 fe|d4 cd|B2 AG FE|D4:|

